icons/mail-add.svg

<svg xmlns="http://www.w3.org/2000/svg" viewBox="0 0 24 24" fill="currentColor">
  <path d="M6 5.75c-1.28579 0-2.25.96421-2.25 2.25v8c0 1.2858.96421 2.25 2.25 2.25h6c.4142 0 .75.3358.75.75s-.3358.75-.75.75H6c-2.11421 0-3.75-1.6358-3.75-3.75V8c0-2.11421 1.63579-3.75 3.75-3.75h12c2.1142 0 3.75 1.63579 3.75 3.75v5c0 .4142-.3358.75-.75.75s-.75-.3358-.75-.75V8c0-1.28579-.9642-2.25-2.25-2.25H6ZM17.75 13c0-.4142-.3358-.75-.75-.75s-.75.3358-.75.75v2.25H14c-.4142 0-.75.3358-.75.75s.3358.75.75.75h2.25V19c0 .4142.3358.75.75.75s.75-.3358.75-.75v-2.25H20c.4142 0 .75-.3358.75-.75s-.3358-.75-.75-.75h-2.25V13ZM6.341 8.33196c-.3689-.18837-.82066-.04203-1.00904.32687-.18837.3689-.04203.82066.32687 1.00904l4.69997 2.40003.0057.0029c1.0224.5111 2.1587.4951 3.24.0145.0123-.0055.0245-.0113.0365-.0174l4.7-2.40003c.3689-.18838.5152-.64014.3269-1.00904-.1884-.3689-.6402-.51524-1.0091-.32687l-4.681 2.39034c-.7109.3109-1.3675.2933-1.9398.0081L6.341 8.33196Z"/>
</svg>

<svg width="24" height="24" viewBox="0 0 24 24" fill="none" xmlns="http://www.w3.org/2000/svg">
<path fill-rule="evenodd" clip-rule="evenodd" d="M6 5.75C4.71421 5.75 3.75 6.71421 3.75 8V16C3.75 17.2858 4.71421 18.25 6 18.25H12C12.4142 18.25 12.75 18.5858 12.75 19C12.75 19.4142 12.4142 19.75 12 19.75H6C3.88579 19.75 2.25 18.1142 2.25 16V8C2.25 5.88579 3.88579 4.25 6 4.25H18C20.1142 4.25 21.75 5.88579 21.75 8V13C21.75 13.4142 21.4142 13.75 21 13.75C20.5858 13.75 20.25 13.4142 20.25 13V8C20.25 6.71421 19.2858 5.75 18 5.75H6ZM17.75 13C17.75 12.5858 17.4142 12.25 17 12.25C16.5858 12.25 16.25 12.5858 16.25 13V15.25H14C13.5858 15.25 13.25 15.5858 13.25 16C13.25 16.4142 13.5858 16.75 14 16.75H16.25V19C16.25 19.4142 16.5858 19.75 17 19.75C17.4142 19.75 17.75 19.4142 17.75 19V16.75H20C20.4142 16.75 20.75 16.4142 20.75 16C20.75 15.5858 20.4142 15.25 20 15.25H17.75V13ZM6.341 8.33196C5.9721 8.14359 5.52034 8.28993 5.33196 8.65883C5.14359 9.02773 5.28993 9.47949 5.65883 9.66787L10.3588 12.0679L10.3588 12.0679L10.3645 12.0708C11.3869 12.5819 12.5232 12.5659 13.6045 12.0853C13.6168 12.0798 13.629 12.074 13.641 12.0679L18.341 9.66787C18.7099 9.47949 18.8562 9.02773 18.6679 8.65883C18.4795 8.28993 18.0277 8.14359 17.6588 8.33196L12.9778 10.7223C12.2669 11.0332 11.6103 11.0156 11.038 10.7304L6.341 8.33196Z" fill="black"/>
</svg>
